public/facebook-logo.svg

<svg xmlns="http://www.w3.org/2000/svg" viewBox="0 0 24 24" fill="#1877F2" width="24px" height="24px"><path d="M22,12c0-5.523-4.477-10-10-10S2,6.477,2,12c0,4.99,3.657,9.128,8.438,9.878V14.89h-2.54V12h2.54V9.797c0-2.506,1.492-3.89,3.777-3.89c1.094,0,2.238,0.195,2.238,0.195v2.46h-1.26c-1.24,0-1.628,0.772-1.628,1.562V12h2.773l-.443,2.89h-2.33V21.878C18.343,21.128,22,16.99,22,12z"/></svg>

<svg xmlns="http://www.w3.org/2000/svg" viewBox="0 0 24 24" width="24" height="24" fill="white"><path d="M12 2.04C6.5 2.04 2 6.53 2 12.06C2 17.06 5.66 21.21 10.44 21.96V14.96H7.9V12.06H10.44V9.85C10.44 7.32 11.93 5.96 14.22 5.96C15.31 5.96 16.45 6.15 16.45 6.15V8.62H15.19C13.95 8.62 13.56 9.39 13.56 10.18V12.06H16.34L15.89 14.96H13.56V21.96A10 10 0 0 0 12 2.04Z"/></svg>
